X:566
T:Paddy McGinty's Goat
M:2/2
L:1/8
S:Colin Hume's website,  colinhume.com  - chords can also be printed below the stave.
Q:1/2=76
K:G
P:A
d>c | "G"B2B>A G2G>A | "G"B>AB>c d2d>B | "Am"c2c>B A2A>B | "Am"c>Bc>d "D7"e2d>c |
"G"B2B>A G2G>A | "G"B>AB>cd2d>B | "Am"c>cB>c "D"A>Ad>c | "G"(3BGG "C"G>G "G"G2 ||
P:B
B>d | "G"g2g>g d2d>d | "G"g2g>g d2d>e | "A7"f>gf>e "D"d>^cd>e | "A7"f>gf>e "D"d2d2 |
"C"e>eg>e "G"d>dg>d | "D7"c>Bc>d "G"B3B | "Am"c>cB>c "D7"A>Ad>c | "G"(3BGG "C"G>G "G"G2 |]

